!!! OTL: Berkowitz270
!!! Chapter: 1
!!! Section: II
!!! Page: 63
!!! Mode: 
!!! Encoder: DJB
**kern
*staff1
*I"Piano
=1-
*clefG2
*k[b-e-]
*g:
*M3/4
4.dd\
8b-\
8a/L
8g/J
=2
8ee-\L
8cc\J
4a/
8r
8g/
=3
8f#/L
8g/J
8a/L
8cc/J
8b-/L
8a/J
=4
8g/L
8a/J
4b-\
4r
=5
4.dd\
8b-\
8a/L
8g/J
=6
8ee-\L
8cc\J
4a-/
8r
8g/
=7
8f#/L
8g/J
8a/L
8cc/J
8b-/L
8a/J
=8
2g/
4r
==
*-
